X:1
T: Anderson's Rant
C:William Marshall
R:Reel
I:speed 232
Q:232
K:C
M:4/4
L:1/8
|:CE GE c2 ce|GE CE D2 DE|CE GE cd fa|ge de c1/2c1/2c c2|
CE GE c2 ce|GE CE D2 DE|CE GE cd fa|ge de c1/2c1/2c c2|
ge cg ec ge|ge ce d2 d2|ge cg ec ge|fd ge c1/2c1/2c c2|
ge cg ec ge|ge ce d2 d2|Gc Fc Ec fa|ge de c1/2c1/2c c2:|
